X: 37453
T: Sliabh Na mBan
R: hornpipe
M: 4/4
K: Gmajor
|:dc|BG~G2 EDB,D|GBAG EGD2|GABd gdBd|cBAG FAdc|
BG~G2 EDB,D|GBAG EGD2|GABd egdc|B2GF G2:|
|:Bc|dg~g2 bg~g2|dgbg agfg|~a3b c'bag|fage d2Bc|
dg~g2 bg~g2|dgbg egdc|Bdgd ABcA|BGGF G2:|

